X:5
T:K{\aa}tl{\aa}ten
R:polska O
H:efter Sjungar Lars Larsson & Hals Erik Samuelsson
A:Lima, Dalarna
Z:hn-op-5
M:3/4
L:1/8
K:Ddor
A>^c A<c c>d|^c/d/c/B/ AG A2|f/g/f/e/ f2 e>d|^c2 A4|
A>^c A<c c>d|^c/d/c/B/ AG A2|f/g/f/e/ f2 e>d|e<^c d4:|
K:Dlyd
|:d>e f2 d>f|f<e c3 d|e>f g2 g>a|(3bag a4|
f>e d<f d>f|f<e c2 c>d|(3efg a2 ce|f<e d2 f2|e<^c d4:|
<end>
<start>
